X: 11703
T: Éirinn Go Brách
R: jig
M: 6/8
K: Dmajor
|:ed|cAA eAA|aga e2 d|cAA eAA|(4Bcdc Bed|
cAA eAA|aga e2 d|(4cdec BAB|cAA A:|
|:cB|cBc ecA|dAd daa|cdc ecA|ded B2 B|
cBc ecA|dAd daa|(4cdec BAB|cAA A:|

